X: 32863
T: Porthole Of The Kelp
R: reel
M: 4/4
K: Ddorian
|:F2DE F2DE|FEFG ECCE|F2DE FGAG|FDEC A,DDE|
F2DE FGAB|cAGF EDCE|DEFG A2dA|1 cAGE EDDE:|2 cAGE EDDA||
|:~d3c dcAG|FEFG ECCE|Dddc dcAG|Addc ~d3e|
efed dcAB|cAGF EDCE|DEFG A2dA|1 cAGE EDDA:|2 cAGE EDDE||

